src/general/components/img/greyArrow.svg

<svg height="50" viewBox="0 0 50 50" width="50" xmlns="http://www.w3.org/2000/svg"><path d="m46.9427767 23.105446c1.1357825 0 2.0572233.8486511 2.0572233 1.8947119s-.9214408 1.8947119-2.0572233 1.8947119h-38.92114641l7.46010411 6.8707895c.8040481.7405319.8040481 1.9387256 0 2.6792575-.390424.3595824-.913225.5550832-1.4545301.5550832-.541305 0-1.064106-.1955008-1.4545301-.5550832l-10.97185742-10.1051301c-.18905133-.1741172-.33943528-.3830718-.44495265-.6155563-.20797195-.4627378-.20797195-.9835125.00092018-1.4501824.10459719-.2304472.25498114-.4394017.44403247-.6135189l10.97185742-10.1051302c.8040481-.7405319 2.1050121-.7405319 2.9090602 0s.8040481 1.9387256 0 2.6792576l-7.46010411 6.8707895z" fill="#b2b2b2" transform="matrix(-1 0 0 1 50 0)"/></svg>

<?xml version="1.0" encoding="UTF-8"?>
<svg width="50px" height="50px" viewBox="0 0 50 50" version="1.1" xmlns="http://www.w3.org/2000/svg" xmlns:xlink="http://www.w3.org/1999/xlink">
    <!-- Generator: Sketch 48.2 (47327) - http://www.bohemiancoding.com/sketch -->
    <title>Artboard</title>
    <desc>Created with Sketch.</desc>
    <defs></defs>
    <g id="homepage" stroke="none" stroke-width="1" fill="none" fill-rule="evenodd">
        <g id="Artboard" fill="#b2b2b2" fill-rule="nonzero">
            <path d="M46.9427767,23.105446 C48.0785592,23.105446 49,23.9540971 49,25.0001579 C49,26.0462187 48.0785592,26.8948698 46.9427767,26.8948698 L8.02163029,26.8948698 L15.4817344,33.7656593 C16.2857825,34.5061912 16.2857825,35.7043849 15.4817344,36.4449168 C15.0913104,36.8044992 14.5685094,37 14.0272043,37 C13.4858993,37 12.9630983,36.8044992 12.5726742,36.4449168 L1.60081678,26.3397867 C1.41176545,26.1656695 1.2613815,25.9567149 1.15586413,25.7242304 C0.94789218,25.2614926 0.94789218,24.7407179 1.15678431,24.274048 C1.2613815,24.0436008 1.41176545,23.8346463 1.60081678,23.6605291 L12.5726742,13.5553989 C13.3767223,12.814867 14.6776863,12.814867 15.4817344,13.5553989 C16.2857825,14.2959308 16.2857825,15.4941245 15.4817344,16.2346565 L8.02163029,23.105446 L46.9427767,23.105446 Z" id="Shape" transform="translate(25.000000, 25.000000) scale(-1, 1) translate(-25.000000, -25.000000) "></path>
        </g>
    </g>
</svg>
